public/src/images/icons/left-arrow.svg

<svg width="18" height="16" viewBox="0 0 18 16" fill="none" xmlns="http://www.w3.org/2000/svg">
<path d="M1.23926 7.99707C1.23926 7.76855 1.32715 7.55762 1.50293 7.39062L6.99609 1.90625C7.18945 1.72168 7.38281 1.64258 7.59375 1.64258C8.04199 1.64258 8.38477 1.96777 8.38477 2.41602C8.38477 2.63574 8.30566 2.83789 8.15625 2.97852L6.29297 4.87695L3.62988 7.31152L5.60742 7.18848H15.9785C16.4443 7.18848 16.7783 7.52246 16.7783 7.99707C16.7783 8.46289 16.4443 8.79688 15.9785 8.79688H5.60742L3.62109 8.67383L6.29297 11.1084L8.15625 13.0068C8.29688 13.1475 8.38477 13.3496 8.38477 13.5693C8.38477 14.0176 8.04199 14.3428 7.59375 14.3428C7.38281 14.3428 7.19824 14.2637 7.01367 14.0967L1.50293 8.59473C1.32715 8.42773 1.23926 8.2168 1.23926 7.99707Z" fill="white"/>
<path d="M1.50293 7.39062L2.03284 7.92138L2.02624 7.92796L2.01949 7.93437L1.50293 7.39062ZM6.99609 1.90625L6.46619 1.3755L6.47215 1.36955L6.47824 1.36373L6.99609 1.90625ZM8.15625 2.97852L7.62099 2.45317L7.6314 2.44255L7.64223 2.43237L8.15625 2.97852ZM6.29297 4.87695L6.82823 5.4023L6.81401 5.4168L6.79902 5.4305L6.29297 4.87695ZM3.62988 7.31152L3.67646 8.06008L1.55513 8.19207L3.12383 6.75798L3.62988 7.31152ZM5.60742 7.18848L5.56085 6.43992L5.58411 6.43848H5.60742V7.18848ZM5.60742 8.79688V9.54688H5.58421L5.56105 9.54544L5.60742 8.79688ZM3.62109 8.67383L3.11595 9.2282L1.54148 7.79356L3.66747 7.92526L3.62109 8.67383ZM6.29297 11.1084L6.79811 10.554L6.81357 10.5681L6.82823 10.583L6.29297 11.1084ZM8.15625 13.0068L7.6259 13.5372L7.62099 13.5322L8.15625 13.0068ZM7.01367 14.0967L6.51049 14.6528L6.49681 14.6405L6.48377 14.6274L7.01367 14.0967ZM1.50293 8.59473L2.01949 8.05098L2.02625 8.05739L2.03284 8.06397L1.50293 8.59473ZM0.489258 7.99707C0.489258 7.56224 0.662069 7.15496 0.986368 6.84688L2.01949 7.93437C2.00174 7.95124 1.99611 7.96256 1.99415 7.96711C1.99216 7.97174 1.98926 7.98033 1.98926 7.99707H0.489258ZM0.973024 6.85987L6.46619 1.3755L7.526 2.437L2.03284 7.92138L0.973024 6.85987ZM6.47824 1.36373C6.78867 1.06741 7.161 0.892578 7.59375 0.892578V2.39258C7.58831 2.39258 7.58671 2.39304 7.58756 2.39287C7.58852 2.39268 7.58851 2.39251 7.58654 2.39337C7.58318 2.39482 7.5589 2.40586 7.51395 2.44877L6.47824 1.36373ZM7.59375 0.892578C8.43376 0.892578 9.13477 1.53147 9.13477 2.41602H7.63477C7.63477 2.40789 7.634 2.40257 7.63343 2.39967C7.63313 2.39818 7.63285 2.39715 7.63266 2.39653C7.63248 2.39591 7.63235 2.39562 7.63235 2.39561C7.63234 2.39559 7.63242 2.39577 7.6326 2.3961C7.63278 2.39644 7.63303 2.39685 7.63335 2.39732C7.63402 2.39831 7.63477 2.39918 7.63544 2.39982C7.63702 2.40135 7.63653 2.40016 7.63155 2.3982C7.62666 2.39627 7.61469 2.39258 7.59375 2.39258V0.892578ZM9.13477 2.41602C9.13477 2.81411 8.9898 3.22393 8.67027 3.52467L7.64223 2.43237C7.63818 2.43617 7.63517 2.4399 7.63314 2.44291C7.63116 2.44585 7.63056 2.44744 7.63073 2.44701C7.63112 2.44604 7.63477 2.43623 7.63477 2.41602H9.13477ZM8.69151 3.50387L6.82823 5.4023L5.75771 4.3516L7.62099 2.45317L8.69151 3.50387ZM6.79902 5.4305L4.13593 7.86507L3.12383 6.75798L5.78692 4.32341L6.79902 5.4305ZM3.58331 6.56297L5.56085 6.43992L5.654 7.93703L3.67646 8.06008L3.58331 6.56297ZM5.60742 6.43848H15.9785V7.93848H5.60742V6.43848ZM15.9785 6.43848C16.864 6.43848 17.5283 7.11372 17.5283 7.99707H16.0283C16.0283 7.96682 16.0231 7.95067 16.021 7.94516C16.0189 7.93984 16.0181 7.94043 16.0207 7.94307C16.0234 7.94573 16.0247 7.94575 16.0215 7.94444C16.018 7.94305 16.0048 7.93848 15.9785 7.93848V6.43848ZM17.5283 7.99707C17.5283 8.8771 16.8585 9.54688 15.9785 9.54688V8.04688C16.0048 8.04688 16.0183 8.0423 16.0223 8.04071C16.0262 8.03917 16.0252 8.03887 16.0228 8.04133C16.0203 8.04378 16.0206 8.04473 16.0222 8.04087C16.0237 8.03689 16.0283 8.02338 16.0283 7.99707H17.5283ZM15.9785 9.54688H5.60742V8.04688H15.9785V9.54688ZM5.56105 9.54544L3.57472 9.42239L3.66747 7.92526L5.65379 8.04831L5.56105 9.54544ZM4.12623 8.11945L6.79811 10.554L5.78783 11.6628L3.11595 9.2282L4.12623 8.11945ZM6.82823 10.583L8.69151 12.4815L7.62099 13.5322L5.75771 11.6337L6.82823 10.583ZM8.68658 12.4765C8.96813 12.7581 9.13477 13.1511 9.13477 13.5693H7.63477C7.63477 13.5596 7.63284 13.5515 7.63023 13.5452C7.62744 13.5385 7.62482 13.5361 7.62592 13.5372L8.68658 12.4765ZM9.13477 13.5693C9.13477 14.4539 8.43376 15.0928 7.59375 15.0928V13.5928C7.61469 13.5928 7.62666 13.5891 7.63155 13.5872C7.63653 13.5852 7.63702 13.584 7.63544 13.5855C7.63477 13.5862 7.63402 13.587 7.63335 13.588C7.63303 13.5885 7.63278 13.5889 7.6326 13.5892C7.63242 13.5896 7.63234 13.5898 7.63235 13.5897C7.63235 13.5897 7.63248 13.5894 7.63266 13.5888C7.63285 13.5882 7.63313 13.5872 7.63343 13.5857C7.634 13.5828 7.63477 13.5775 7.63477 13.5693H9.13477ZM7.59375 15.0928C7.16165 15.0928 6.80441 14.9188 6.51049 14.6528L7.51686 13.5405C7.56078 13.5803 7.58384 13.5907 7.58735 13.5922C7.5892 13.593 7.58907 13.5928 7.58794 13.5925C7.58689 13.5923 7.58835 13.5928 7.59375 13.5928V15.0928ZM6.48377 14.6274L0.973022 9.12548L2.03284 8.06397L7.54358 13.5659L6.48377 14.6274ZM0.986368 9.13848C0.665195 8.83336 0.489258 8.42737 0.489258 7.99707H1.98926C1.98926 8.00581 1.99076 8.01153 1.99298 8.01663C1.99518 8.0217 2.00146 8.03385 2.01949 8.05098L0.986368 9.13848Z" fill="white"/>
</svg>

<svg width="18" height="16" fill="none" xmlns="http://www.w3.org/2000/svg"><path d="M1.24 7.997a.82.82 0 01.263-.606l5.493-5.485c.193-.184.387-.263.598-.263.448 0 .79.325.79.773a.76.76 0 01-.228.563L6.293 4.877 3.63 7.312l1.977-.124h10.371c.466 0 .8.334.8.81a.77.77 0 01-.8.799H5.609L3.62 8.674l2.672 2.434 1.863 1.899a.8.8 0 01.229.562c0 .449-.343.774-.791.774-.211 0-.396-.08-.58-.246l-5.51-5.502a.815.815 0 01-.264-.598z" fill="#fff"/><path d="M1.503 7.39l.53.531-.007.007-.007.006-.516-.543zm5.493-5.484l-.53-.53.006-.006.006-.006.518.542zm1.16 1.073l-.535-.526.01-.01.011-.01.514.546zM6.293 4.877l.535.525-.014.015-.015.014-.506-.554zM3.63 7.312l.046.748-2.12.132 1.568-1.434.506.554zm1.977-.124l-.046-.748.023-.002h.023v.75zm0 1.609v.75h-.023l-.023-.002.046-.748zm-1.986-.123l-.505.554-1.575-1.434 2.126.131-.046.749zm2.672 2.434l.505-.554.016.014.014.015-.535.525zm1.863 1.899l-.53.53-.005-.005.535-.525zm-1.142 1.09l-.504.556-.013-.013-.013-.013.53-.53zM1.503 8.595l.516-.544.007.006.007.007-.53.53zM.489 7.997c0-.435.173-.842.497-1.15L2.02 7.934a.102.102 0 00-.025.033.073.073 0 00-.005.03H.49zM.973 6.86l5.493-5.485 1.06 1.062-5.493 5.484L.973 6.86zm5.505-5.496c.31-.297.683-.471 1.116-.471v1.5h-.007a.28.28 0 00-.073.056L6.478 1.364zM7.594.893c.84 0 1.54.638 1.54 1.523h-1.5a.085.085 0 00-.001-.02v.001l.002.003c.002.001.002 0-.003-.002a.104.104 0 00-.038-.005v-1.5zm1.54 1.523c0 .398-.144.808-.464 1.109L7.642 2.432a.063.063 0 00-.009.01l-.002.005a.09.09 0 00.004-.031h1.5zm-.442 1.088L6.828 5.402l-1.07-1.05L7.62 2.453l1.07 1.05zM6.799 5.43L4.136 7.865 3.124 6.758l2.663-2.435L6.799 5.43zM3.583 6.563l1.978-.123.093 1.497-1.978.123-.093-1.497zm2.024-.125h10.371v1.5H5.609v-1.5zm10.371 0c.886 0 1.55.676 1.55 1.56h-1.5a.147.147 0 00-.007-.053c-.002-.005-.003-.005 0-.002.002.003.004.003 0 .001a.12.12 0 00-.043-.006v-1.5zm1.55 1.56c0 .88-.67 1.549-1.55 1.549v-1.5c.027 0 .04-.005.044-.006.004-.002.003-.002 0 0-.002.003-.001.004 0 0a.124.124 0 00.006-.044h1.5zm-1.55 1.549H5.609v-1.5h10.37v1.5zM5.562 9.545l-1.986-.123.092-1.497 1.987.123-.093 1.497zM4.126 8.12l2.672 2.435-1.01 1.109-2.672-2.435 1.01-1.109zm2.702 2.464l1.864 1.899-1.071 1.05-1.863-1.898 1.07-1.051zm1.859 1.893c.281.282.448.675.448 1.093h-1.5a.063.063 0 00-.005-.024l-.004-.008 1.06-1.06zm.448 1.093c0 .885-.701 1.524-1.541 1.524v-1.5c.02 0 .033-.004.038-.006.005-.002.005-.003.003-.002a.018.018 0 00-.002.004v-.003a.054.054 0 00.002-.017h1.5zm-1.541 1.524c-.432 0-.79-.174-1.084-.44l1.007-1.113c.044.04.067.05.07.052.002.001.002 0 0 0h.007v1.5zm-1.11-.466L.973 9.125l1.06-1.061 5.51 5.502-1.06 1.061zM.986 9.138a1.564 1.564 0 01-.497-1.14h1.5c0 .008.002.014.004.019a.11.11 0 00.026.034L.986 9.138z" fill="#fff"/></svg>
